X: 20467
T: John Keith Lang
R: reel
M: 4/4
K: Amajor
A2 ce fcef|cefc e2 ce|f2 fe faaf|ecef c~B3|
A2 ce fcef|cefc e2 ce|~f3 e faaf|ecBc ~A3 B:|
A2 af ecef|cBAc e2 ce|f2 fe faaf|ecef c~B3|
A2 af ecef|cBAc e2 ce|~f3 e fgaf|ecBc ~A3 e|
~a3 f ecef|cBAc e2 ce|~f3 e fgaf|ecef c~B3|
A2 ce fcef|cefc e2 ce|f2 fe fgaf|ecBc ~A3 B||

